assets/icons/notion.svg

<svg width="18" height="19" viewBox="0 0 18 19" fill="none" xmlns="http://www.w3.org/2000/svg">
<path d="M3.6816 3.86712C4.23247 4.3146 4.43923 4.28063 5.4745 4.21122L15.2328 3.62565C15.4395 3.62565 15.2675 3.41889 15.1988 3.38492L13.5772 2.21305C13.2671 1.97232 12.8528 1.69615 12.0598 1.76482L2.61163 2.45451C2.26752 2.48848 2.19811 2.66127 2.33546 2.79862L3.6816 3.86712ZM4.26718 6.14146L4.26718 16.4085C4.26718 16.9601 4.54261 17.1669 5.16362 17.1322L15.8878 16.5119C16.5088 16.4779 16.5782 16.0984 16.5782 15.6501V5.45177C16.5782 5.00429 16.4061 4.76282 16.0258 4.79679L4.81878 5.45177C4.40526 5.48648 4.26718 5.69398 4.26718 6.14146ZM14.854 6.69159C14.9226 7.00173 14.854 7.31186 14.5438 7.34731L14.0269 7.45069V15.0299C13.578 15.2713 13.1644 15.4094 12.8196 15.4094C12.2673 15.4094 12.1292 15.2366 11.7157 14.7205L8.33589 9.41416V14.5477L9.40513 14.7899C9.40513 14.7899 9.40513 15.4102 8.54265 15.4102L6.16345 15.5475C6.09478 15.4102 6.16345 15.0653 6.40491 14.9966L7.02519 14.8246L7.02519 8.03626L6.16493 7.96685C6.09551 7.65671 6.2683 7.20922 6.75049 7.17452L9.30249 7.00246L12.8203 12.3775V7.622L11.9232 7.51936C11.8545 7.13981 12.1299 6.86438 12.4748 6.83041L14.854 6.69159ZM1.81856 1.5241L11.647 0.80044C12.8536 0.697061 13.1644 0.765734 13.9228 1.31734L17.0604 3.52227C17.5773 3.90108 17.7501 4.00446 17.7501 4.41798L17.7501 16.5119C17.7501 17.2695 17.4746 17.7185 16.5095 17.7864L5.09495 18.4761C4.37129 18.5108 4.02571 18.4074 3.64616 17.9245L1.33563 14.9265C0.922114 14.3749 0.750061 13.9621 0.750061 13.4792L0.750061 2.7292C0.750061 2.10967 1.02623 1.59203 1.81856 1.5241Z" fill="black"/>
</svg>

<svg width="18" height="19" viewBox="0 0 18 19" fill="none" xmlns="http://www.w3.org/2000/svg"><path d="M3.682 3.867c.55.448.757.414 1.793.344l9.758-.584c.207 0 .035-.207-.034-.241l-1.623-1.172c-.31-.24-.724-.517-1.517-.448l-9.448.69c-.344.033-.414.206-.277.344l1.347 1.067zm.585 2.274V16.41c0 .55.276.757.897.722l10.724-.62c.62-.034.69-.414.69-.862V5.452c0-.448-.172-.69-.552-.655l-11.207.655c-.415.034-.553.242-.553.69zm10.587.552c.069.31 0 .62-.31.655l-.517.104v7.58c-.45.241-.863.38-1.207.38-.553 0-.69-.173-1.104-.69l-3.38-5.306v5.134l1.07.242s0 .62-.863.62l-2.38.137c-.068-.137 0-.482.242-.55l.62-.172V8.036l-.86-.07c-.07-.31.103-.757.585-.791l2.552-.173 3.518 5.375V7.622l-.897-.103c-.069-.38.207-.656.552-.69l2.38-.138zM1.82 1.524 11.646.8c1.207-.103 1.517-.034 2.276.517l3.137 2.205c.517.38.69.482.69.896v12.094c0 .758-.275 1.207-1.24 1.274l-11.415.69c-.724.035-1.07-.069-1.449-.552l-2.31-2.997c-.414-.552-.586-.965-.586-1.448V2.73c0-.62.276-1.138 1.069-1.206z" fill="black"/></svg>
